X:1
T:The Trees They Grow So High
M:6/8
L:1/8
K:Eb
 c| B2 G E2 G| B2- c c2 c|F-G AG-F E| C3 z z E| E2 E E2 F| G2 GG-F E|\
 F2 GF-E D| C3 z z c/2c/2| B2- G E2 G| B2 c c2 c|F-G AG-F E| C3 z CD|\
 E2 F E2 D| C3 C2 C| C3 G3-| G3- G2||
